X:3094
T:Cliffs of Moher
M:6/8
L:1/8
R:Jig
K:G maj
d|:eaa bag|eaf ged|c2A BAG|EFG ABd|eaa bag|eaf ged|c2A BAG|EFGA2d:|
|:e2e dBA|e2e dBA|GAB dBA|GAB dBd|1e2e dBA|e2e dBA|GAB dBG|EFGA3:|2
e2e dee|cee Bee|EFG BAG|edB A3|


